X:2
T:Waltzing Matilda
M:4/4
C:
S:Steve Wyrick <sjwyrick@ca.astound.net> 2004-2-4
N:Used as strathspey tune in The Academy
A:Seabright
O:Australia
R:Air?
K:G
L:1/8
G>A | B2 B2  A2 A2 | G>AB>G E>F (3GFE | D2 G>B d2 c>B | A2 A>B A2 |!
G>A | B2 B2  A2 A2 | G>AB>G E>F (3GFE | D2 G>B d2 c>B | A2 G>F G2 ||!
z2  | d2 d>d d2 B2 | g2 g>g f2  e2    | d2 d>d e2 d2  | d2 c>B A2 |!
G>A | B2 B2  A2 A2 | G>AB>G E>F (3GFE | D2 G>B d2 c>B | A2 G>F G2 ||!
